papirus/32x32/apps/color-picker.svg

<svg height="32" viewBox="0 0 32 32.000001" width="32" xmlns="http://www.w3.org/2000/svg"><g transform="translate(0 -1020.3622)"><path d="m21.257499 1028.7477c-1.305758-1.3058-3.303098-1.4109-4.478339-.2357l-9.5458931 9.546c-.7865354.7865-1.3971723 1.4058-1.0607054 2.4748l-3.5355403 3.5355c-1.1751797 1.1753-.5986896 3.644.7071301 4.9498 1.3057582 1.3058 3.7744823 1.8823 4.9497241.7071l3.5355406-3.5355c1.069094.3365 1.688347-.2741 2.474856-1.0607l9.545956-9.546c1.175241-1.1751 1.070093-3.1725-.235665-4.4783z" fill="#ccc"/><path d="m18.96875 7.3378906c-.80946-.0426-1.601833.2249-2.189453.8125l-9.5468751 9.5449214c-.770872.770838-1.367314 1.383666-1.0742188 2.414063.1693921-.504557.5876968-.927562 1.0742188-1.414063l9.5468751-9.5449214c1.175241-1.1752 3.172757-1.071425 4.478515.234375l2.357422 2.3574224c.568369.568386.893164 1.269004 1 1.974609.175483-1.009746-.159638-2.134221-1-2.974609l-2.357422-2.3574224c-.652878-.6529-1.479602-1.004275-2.289062-1.046875zm-12.8339844 12.8691404l-3.4980468 3.5c-.5566904.556748-.7106221 1.405132-.5898438 2.28125.0724663-.493762.25174-.943111.5898438-1.28125l3.5351562-3.537109c-.1153256-.366405-.1132626-.677307-.0371094-.962891z" fill="#fff" opacity=".2" transform="translate(0 1020.3622)"/><path d="m24.615234 12.716797c-.097183.559203-.346746 1.085078-.765625 1.503906l-9.544921 9.546875c-.786509.7866-1.405516 1.397047-2.47461 1.060547l-3.5371092 3.535156c-1.1752419 1.1752-3.6434606.598769-4.9492188-.707031-.6872443-.687234-1.1626889-1.694591-1.296875-2.667969-.1794118 1.222454.3667446 2.737853 1.296875 3.667969 1.3057582 1.3058 3.7739769 1.882231 4.9492188.707031l3.5371092-3.535156c1.069094.3365 1.688101-.273947 2.47461-1.060547l9.544921-9.546875c.663684-.663604.904232-1.588469.765625-2.503906zm-18.4570309 6.392578c-.0105929.031552-.0148431.065426-.0234375.097656l.0371094-.037109c-.0067005-.021289-.0077165-.03961-.0136719-.060547z" opacity=".3" transform="translate(0 1020.3622)"/><rect fill="#ffbc48" height="18" rx="5.3333335" ry="6.0000005" transform="matrix(.70710678 .70710678 -.70710678 .70710678 0 0)" width="12" x="738.13245" y="703.40314"/><path d="m30.681641 6.7558594c-.124705 1.3920772-.753054 2.8018815-1.88086 3.9296876l-4.24414 4.242187c-2.350424 2.350424-5.924407 2.559968-8.013672.470704l-.941407-.941407c-.845884-.845885-1.307574-1.936905-1.410156-3.089843-.136533 1.510665.322291 3.001978 1.410156 4.089843l.941407.941407c2.089265 2.089264 5.663249 1.879719 8.013672-.470704l4.24414-4.242187c1.40015-1.40015 2.033317-3.2335985 1.88086-4.9296876z" opacity=".3" transform="translate(0 1020.3622)"/><path d="m24.960938 1.2929688c-1.614439-.0605757-3.324372.5841369-4.646485 1.90625l-4.242187 4.2441406c-1.398803 1.3988026-2.031646 3.2291046-1.88086 4.9238286.125681-1.390596.754285-2.799207 1.88086-3.9257818l4.242187-4.2421874c2.350423-2.3504232 5.924407-2.5599681 8.013672-.4707032l.943359.9433594c.844688.8446877 1.306685 1.9328581 1.410157 3.0839844.135187-1.5091049-.323386-2.9972136-1.410157-4.0839844l-.943359-.9433594c-.914053-.9140534-2.111513-1.3884324-3.367187-1.4355468z" fill="#fff" opacity=".2" transform="translate(0 1020.3622)"/><rect fill="#ffbc48" height="5" rx=".75000006" ry=".83333337" transform="matrix(.70710678 .70710678 -.70710678 .70710678 0 0)" width="18" x="735.13245" y="716.40314"/><rect fill="#4e79ff" height="12" rx="2" ry="1.5" transform="matrix(.70710678 .70710678 -.70710678 .70710678 0 0)" width="4" x="742.13245" y="725.40314"/><path d="m13.226562 6.3554688c-.202365.0106507-.409041.0984949-.572265.2617187l-2.357422 2.3574219c-.3206739.3206738-.3478029.8059305-.070313 1.1015626.02528-.033274.039758-.071008.070313-.1015626l2.357422-2.3574219c.326448-.3264476.825338-.3523966 1.119141-.0585937l11.667968 11.6679682c.005197.005197.006723.012256.011719.017579.244804-.322223.254585-.751275-.011719-1.017579l-11.667968-11.6679682c-.146902-.1469015-.34451-.2137758-.546876-.203125z" fill="#fff" opacity=".2" transform="translate(0 1020.3622)"/><path d="m10.226562 9.0761719c-.2448036.3222226-.2545843.7512745.011719 1.0175781l11.667969 11.667969c.293803.293803.792693.267854 1.119141-.058594l2.357421-2.357422c.320674-.320674.347803-.80593.070313-1.101562-.025279.033273-.039758.071007-.070313.101562l-2.357421 2.357422c-.326448.326448-.825338.352397-1.119141.058594l-11.667969-11.667969c-.005196-.0051964-.006722-.0122552-.011719-.0175781z" opacity=".3" transform="translate(0 1020.3622)"/></g></svg>

<?xml version="1.0" encoding="UTF-8" standalone="no"?>
<!-- Created with Inkscape (http://www.inkscape.org/) -->

<svg
   xmlns:dc="http://purl.org/dc/elements/1.1/"
   xmlns:cc="http://creativecommons.org/ns#"
   xmlns:rdf="http://www.w3.org/1999/02/22-rdf-syntax-ns#"
   xmlns:svg="http://www.w3.org/2000/svg"
   xmlns="http://www.w3.org/2000/svg"
   xmlns:sodipodi="http://sodipodi.sourceforge.net/DTD/sodipodi-0.dtd"
   xmlns:inkscape="http://www.inkscape.org/namespaces/inkscape"
   width="32"
   height="32"
   viewBox="0 0 32 32.000001"
   id="svg2"
   version="1.1"
   inkscape:version="0.91 r13725"
   sodipodi:docname="color-picker.svg">
  <defs
     id="defs4" />
  <sodipodi:namedview
     id="base"
     pagecolor="#515151"
     bordercolor="#666666"
     borderopacity="1.0"
     inkscape:pageopacity="0"
     inkscape:pageshadow="2"
     inkscape:zoom="1"
     inkscape:cx="12.979362"
     inkscape:cy="14.099186"
     inkscape:document-units="px"
     inkscape:current-layer="layer1"
     showgrid="false"
     units="px"
     showborder="true"
     inkscape:window-width="1535"
     inkscape:window-height="876"
     inkscape:window-x="65"
     inkscape:window-y="24"
     inkscape:window-maximized="1" />
  <metadata
     id="metadata7">
    <rdf:RDF>
      <cc:Work
         rdf:about="">
        <dc:format>image/svg+xml</dc:format>
        <dc:type
           rdf:resource="http://purl.org/dc/dcmitype/StillImage" />
        <dc:title></dc:title>
      </cc:Work>
    </rdf:RDF>
  </metadata>
  <g
     inkscape:label="Layer 1"
     inkscape:groupmode="layer"
     id="layer1"
     transform="translate(0,-1020.3622)">
    <g
       id="g4541">
      <path
         sodipodi:nodetypes="sccccsccccss"
         id="rect4136"
         d="m 21.257499,1028.7477 c -1.305758,-1.3058 -3.303098,-1.4109 -4.478339,-0.2357 l -9.5458931,9.546 c -0.7865354,0.7865 -1.3971723,1.4058 -1.0607054,2.4748 l -3.5355403,3.5355 c -1.1751797,1.1753 -0.5986896,3.644 0.7071301,4.9498 1.3057582,1.3058 3.7744823,1.8823 4.9497241,0.7071 l 3.5355406,-3.5355 c 1.069094,0.3365 1.688347,-0.2741 2.474856,-1.0607 l 9.545956,-9.546 c 1.175241,-1.1751 1.070093,-3.1725 -0.235665,-4.4783 z"
         style="opacity:1;fill:#cccccc;fill-opacity:1;stroke:none;stroke-width:10;stroke-linecap:round;stroke-linejoin:round;stroke-miterlimit:4;stroke-dasharray:none;stroke-opacity:1"
         inkscape:connector-curvature="0" />
      <path
         id="path4531"
         transform="translate(0,1020.3622)"
         d="M 18.96875 7.3378906 C 18.15929 7.2952906 17.366917 7.5627906 16.779297 8.1503906 L 7.2324219 17.695312 C 6.4615499 18.46615 5.8651079 19.078978 6.1582031 20.109375 C 6.3275952 19.604818 6.7458999 19.181813 7.2324219 18.695312 L 16.779297 9.1503906 C 17.954538 7.9751906 19.952054 8.0789656 21.257812 9.3847656 L 23.615234 11.742188 C 24.183603 12.310574 24.508398 13.011192 24.615234 13.716797 C 24.790717 12.707051 24.455596 11.582576 23.615234 10.742188 L 21.257812 8.3847656 C 20.604934 7.7318656 19.77821 7.3804906 18.96875 7.3378906 z M 6.1347656 20.207031 L 2.6367188 23.707031 C 2.0800284 24.263779 1.9260967 25.112163 2.046875 25.988281 C 2.1193413 25.494519 2.298615 25.04517 2.6367188 24.707031 L 6.171875 21.169922 C 6.0565494 20.803517 6.0586124 20.492615 6.1347656 20.207031 z "
         style="opacity:0.2;fill:#ffffff;fill-opacity:1;stroke:none;stroke-width:10;stroke-linecap:round;stroke-linejoin:round;stroke-miterlimit:4;stroke-dasharray:none;stroke-opacity:1" />
      <path
         id="path4536"
         transform="translate(0,1020.3622)"
         d="M 24.615234 12.716797 C 24.518051 13.276 24.268488 13.801875 23.849609 14.220703 L 14.304688 23.767578 C 13.518179 24.554178 12.899172 25.164625 11.830078 24.828125 L 8.2929688 28.363281 C 7.1177269 29.538481 4.6495082 28.96205 3.34375 27.65625 C 2.6565057 26.969016 2.1810611 25.961659 2.046875 24.988281 C 1.8674632 26.210735 2.4136196 27.726134 3.34375 28.65625 C 4.6495082 29.96205 7.1177269 30.538481 8.2929688 29.363281 L 11.830078 25.828125 C 12.899172 26.164625 13.518179 25.554178 14.304688 24.767578 L 23.849609 15.220703 C 24.513293 14.557099 24.753841 13.632234 24.615234 12.716797 z M 6.1582031 19.109375 C 6.1476102 19.140927 6.14336 19.174801 6.1347656 19.207031 L 6.171875 19.169922 C 6.1651745 19.148633 6.1641585 19.130312 6.1582031 19.109375 z "
         style="opacity:0.3;fill:#000000;fill-opacity:1;stroke:none;stroke-width:10;stroke-linecap:round;stroke-linejoin:round;stroke-miterlimit:4;stroke-dasharray:none;stroke-opacity:1" />
      <rect
         transform="matrix(0.70710678,0.70710678,-0.70710678,0.70710678,0,0)"
         style="opacity:1;fill:#ffbc48;fill-opacity:1;stroke:none;stroke-width:10;stroke-linecap:round;stroke-linejoin:round;stroke-miterlimit:4;stroke-dasharray:none;stroke-opacity:1"
         id="rect4140"
         width="12"
         height="18"
         x="738.13245"
         y="703.40314"
         ry="6.0000005"
         rx="5.3333335" />
      <path
         id="rect4516"
         transform="translate(0,1020.3622)"
         d="M 30.681641 6.7558594 C 30.556936 8.1479366 29.928587 9.5577409 28.800781 10.685547 L 24.556641 14.927734 C 22.206217 17.278158 18.632234 17.487702 16.542969 15.398438 L 15.601562 14.457031 C 14.755678 13.611146 14.293988 12.520126 14.191406 11.367188 C 14.054873 12.877853 14.513697 14.369166 15.601562 15.457031 L 16.542969 16.398438 C 18.632234 18.487702 22.206218 18.278157 24.556641 15.927734 L 28.800781 11.685547 C 30.200931 10.285397 30.834098 8.4519485 30.681641 6.7558594 z "
         style="opacity:0.3;fill:#000000;fill-opacity:1;stroke:none;stroke-width:10;stroke-linecap:round;stroke-linejoin:round;stroke-miterlimit:4;stroke-dasharray:none;stroke-opacity:1" />
      <path
         id="rect4511"
         transform="translate(0,1020.3622)"
         d="M 24.960938 1.2929688 C 23.346499 1.2323931 21.636566 1.8771057 20.314453 3.1992188 L 16.072266 7.4433594 C 14.673463 8.842162 14.04062 10.672464 14.191406 12.367188 C 14.317087 10.976592 14.945691 9.567981 16.072266 8.4414062 L 20.314453 4.1992188 C 22.664876 1.8487956 26.23886 1.6392507 28.328125 3.7285156 L 29.271484 4.671875 C 30.116172 5.5165627 30.578169 6.6047331 30.681641 7.7558594 C 30.816828 6.2467545 30.358255 4.7586458 29.271484 3.671875 L 28.328125 2.7285156 C 27.414072 1.8144622 26.216612 1.3400832 24.960938 1.2929688 z "
         style="opacity:0.2;fill:#ffffff;fill-opacity:1;stroke:none;stroke-width:10;stroke-linecap:round;stroke-linejoin:round;stroke-miterlimit:4;stroke-dasharray:none;stroke-opacity:1" />
      <rect
         transform="matrix(0.70710678,0.70710678,-0.70710678,0.70710678,0,0)"
         rx="0.75000006"
         ry="0.83333337"
         y="716.40314"
         x="735.13245"
         height="5"
         width="18"
         id="rect4142"
         style="opacity:1;fill:#ffbc48;fill-opacity:1;stroke:none;stroke-width:10;stroke-linecap:round;stroke-linejoin:round;stroke-miterlimit:4;stroke-dasharray:none;stroke-opacity:1" />
      <rect
         transform="matrix(0.70710678,0.70710678,-0.70710678,0.70710678,0,0)"
         ry="1.5"
         rx="2"
         y="725.40314"
         x="742.13245"
         height="12"
         width="4"
         id="rect4151"
         style="opacity:1;fill:#4e79ff;fill-opacity:1;stroke:none;stroke-width:10;stroke-linecap:round;stroke-linejoin:round;stroke-miterlimit:4;stroke-dasharray:none;stroke-opacity:1" />
      <path
         id="rect4521"
         transform="translate(0,1020.3622)"
         d="M 13.226562 6.3554688 C 13.024197 6.3661195 12.817521 6.4539637 12.654297 6.6171875 L 10.296875 8.9746094 C 9.9762011 9.2952832 9.9490721 9.7805399 10.226562 10.076172 C 10.251842 10.042898 10.26632 10.005164 10.296875 9.9746094 L 12.654297 7.6171875 C 12.980745 7.2907399 13.479635 7.2647909 13.773438 7.5585938 L 25.441406 19.226562 C 25.446603 19.231759 25.448129 19.238818 25.453125 19.244141 C 25.697929 18.921918 25.70771 18.492866 25.441406 18.226562 L 13.773438 6.5585938 C 13.626536 6.4116923 13.428928 6.344818 13.226562 6.3554688 z "
         style="opacity:0.2;fill:#ffffff;fill-opacity:1;stroke:none;stroke-width:10;stroke-linecap:round;stroke-linejoin:round;stroke-miterlimit:4;stroke-dasharray:none;stroke-opacity:1" />
      <path
         id="rect4526"
         transform="translate(0,1020.3622)"
         d="M 10.226562 9.0761719 C 9.9817584 9.3983945 9.9719777 9.8274464 10.238281 10.09375 L 21.90625 21.761719 C 22.200053 22.055522 22.698943 22.029573 23.025391 21.703125 L 25.382812 19.345703 C 25.703486 19.025029 25.730615 18.539773 25.453125 18.244141 C 25.427846 18.277414 25.413367 18.315148 25.382812 18.345703 L 23.025391 20.703125 C 22.698943 21.029573 22.200053 21.055522 21.90625 20.761719 L 10.238281 9.09375 C 10.233085 9.0885536 10.231559 9.0814948 10.226562 9.0761719 z "
         style="opacity:0.3;fill:#000000;fill-opacity:1;stroke:none;stroke-width:10;stroke-linecap:round;stroke-linejoin:round;stroke-miterlimit:4;stroke-dasharray:none;stroke-opacity:1" />
    </g>
  </g>
</svg>
